src/assets/images/video.svg

<svg width="48" height="49" viewBox="0 0 48 49" fill="none" xmlns="http://www.w3.org/2000/svg">
<g opacity="0.5">
<path d="M32.2534 30.4927L39.5834 33.4887C40.9754 34.0567 42.4994 33.0347 42.4994 31.5307V18.2527C42.4994 16.7487 40.9754 15.7247 39.5834 16.2927L32.2534 19.2887" stroke="white" stroke-width="1.68616" stroke-linecap="round" stroke-linejoin="round"/>
<path fill-rule="evenodd" clip-rule="evenodd" d="M12.608 38.7817H25.146C29.514 38.7817 32.254 35.9357 32.254 31.9057V17.8757C32.254 13.8457 29.526 10.9997 25.146 10.9997H12.608C8.226 10.9997 5.5 13.8457 5.5 17.8757V31.9057C5.5 35.9357 8.226 38.7817 12.608 38.7817Z" stroke="white" stroke-width="1.68616" stroke-linecap="round" stroke-linejoin="round"/>
</g>
</svg>

<?xml version="1.0" encoding="UTF-8" standalone="no"?>
<svg
   xmlns:dc="http://purl.org/dc/elements/1.1/"
   xmlns:cc="http://creativecommons.org/ns#"
   xmlns:rdf="http://www.w3.org/1999/02/22-rdf-syntax-ns#"
   xmlns:svg="http://www.w3.org/2000/svg"
   xmlns="http://www.w3.org/2000/svg"
   xmlns:sodipodi="http://sodipodi.sourceforge.net/DTD/sodipodi-0.dtd"
   xmlns:inkscape="http://www.inkscape.org/namespaces/inkscape"
   inkscape:version="1.0 (4035a4fb49, 2020-05-01)"
   sodipodi:docname="video.svg"
   id="svg8"
   version="1.1"
   fill="none"
   viewBox="0 0 50 38.08677"
   height="38.086769"
   width="50">
  <metadata
     id="metadata14">
    <rdf:RDF>
      <cc:Work
         rdf:about="">
        <dc:format>image/svg+xml</dc:format>
        <dc:type
           rdf:resource="http://purl.org/dc/dcmitype/StillImage" />
      </cc:Work>
    </rdf:RDF>
  </metadata>
  <defs
     id="defs12" />
  <sodipodi:namedview
     inkscape:current-layer="svg8"
     inkscape:window-maximized="1"
     inkscape:window-y="-8"
     inkscape:window-x="-8"
     inkscape:cy="14.34338"
     inkscape:cx="19.34308"
     inkscape:zoom="15"
     showgrid="false"
     id="namedview10"
     inkscape:window-height="1017"
     inkscape:window-width="1920"
     inkscape:pageshadow="2"
     inkscape:pageopacity="0"
     guidetolerance="10"
     gridtolerance="10"
     objecttolerance="10"
     borderopacity="1"
     bordercolor="#666666"
     pagecolor="#ffffff" />
  <g
     transform="matrix(1.2924719,0,0,1.2924719,-6.0189383,-13.127146)"
     id="g6"
     opacity="0.5">
    <path
       id="path2"
       stroke-linejoin="round"
       stroke-linecap="round"
       stroke-width="1.68616"
       stroke="#ffffff"
       d="m 32.2534,30.4927 7.33,2.996 c 1.392,0.568 2.916,-0.454 2.916,-1.958 v -13.278 c 0,-1.504 -1.524,-2.528 -2.916,-1.96 l -7.33,2.996" />
    <path
       id="path4"
       stroke-linejoin="round"
       stroke-linecap="round"
       stroke-width="1.68616"
       stroke="#ffffff"
       d="m 12.608,38.7817 h 12.538 c 4.368,0 7.108,-2.846 7.108,-6.876 v -14.03 c 0,-4.03 -2.728,-6.876 -7.108,-6.876 H 12.608 c -4.382,0 -7.108,2.846 -7.108,6.876 v 14.03 c 0,4.03 2.726,6.876 7.108,6.876 z"
       clip-rule="evenodd"
       fill-rule="evenodd" />
  </g>
</svg>
